svg/forum_plus.svg

<svg xmlns="http://www.w3.org/2000/svg" viewBox="0 0 24 24"><path d="M21 6h-2v6.1c1.2.2 2.2.7 3 1.4V7c0-.5-.5-1-1-1M6 17c0 .5.5 1 1 1h5c0-1.1.3-2.1.8-3H6zM16 2H3c-.5 0-1 .5-1 1v14l4-4h8.7c.7-.5 1.5-.8 2.3-.9V3c0-.5-.5-1-1-1m1 12h2v3h3v2h-3v3h-2v-3h-3v-2h3z"/></svg>

<svg xmlns="http://www.w3.org/2000/svg" id="mdi-forum-plus" viewBox="0 0 24 24"><path d="M21 6H19V12.1C20.2 12.3 21.2 12.8 22 13.5V7C22 6.5 21.5 6 21 6M6 17C6 17.5 6.5 18 7 18H12C12 16.9 12.3 15.9 12.8 15H6V17M16 2H3C2.5 2 2 2.5 2 3V17L6 13H14.7C15.4 12.5 16.2 12.2 17 12.1V3C17 2.5 16.5 2 16 2M17 14H19V17H22V19H19V22H17V19H14V17H17V14Z" /></svg>
